X: 8
T: The Many Lands You Fear
C: Teton Sioux band 1911-1914
N: Derived from sioux008.krn
O: South Dakota, U.S.A.
N: Teton Sioux Music by Frances Densmore, 1918
Z: transcribed to **kern format by Craig Sapp
L: 1/16
M: 2/4
Q: 1/4=58
K: C clef=bass
%%linebreak <none>
E3 E [I:setbarnb 1]| 
G4E3 E | 
G4E3 E | 
E2> E2 D3 E ||  
[M:3/4](C4A,2>) C2 C3 E | 
E4E4E3 E ||  
[M:2/4]C4A,3 A, ||  
[M:3/4]G,4E,2> G,2 G,3 C ||  
[M:2/4]C8 | 
A,2> C2A,4 | 
G,2> G,2G,4 | 
E,2> E,2E,4- | 
E,4-E,3 E, | 
E,2> G,2G,4 | 
E,2> E,2E,4- | 
E,4E,4 |]  



